src/images/common/main/pram.svg

<svg width="362" height="484" viewBox="0 0 362 484" fill="none" xmlns="http://www.w3.org/2000/svg">
<path d="M217.833 409.012C215.398 410.677 212.353 411.182 209.511 410.392L67.8758 371.016C63.5486 369.813 60.5543 365.873 60.5543 361.382V335.291C60.5543 333.851 60.8596 332.439 61.4742 331.137C64.1972 325.37 72.4206 308.386 78.7276 299.918C79.8745 298.379 80.6796 296.611 81.3265 294.803C83.6855 288.211 90.2917 279.412 94.5094 274.192C96.7563 271.412 100.377 270.208 103.88 270.924L282.883 307.49C287.003 308.332 290.156 311.66 290.773 315.819L295.694 348.962C296.257 352.749 294.607 356.525 291.446 358.686L217.833 409.012Z" fill="#BF252B"/>
<path d="M22.0971 445.287C9.89321 442.054 4.63809 424.198 10.3595 405.405C16.0809 386.612 30.6122 373.998 42.8161 377.231C55.02 380.464 60.2752 398.32 54.5538 417.113C48.8324 435.906 34.3011 448.52 22.0971 445.287Z" fill="#545ED7"/>
<path d="M29.1164 440.569C19.5864 438.044 15.4833 424.099 19.9518 409.421C24.4203 394.743 35.7683 384.891 45.2982 387.416C54.8282 389.94 58.9313 403.886 54.4628 418.563C49.9943 433.241 38.6464 443.093 29.1164 440.569Z" fill="white"/>
<path d="M35.077 425.933C30.4359 424.703 28.4368 417.914 30.6119 410.77C32.787 403.625 38.3127 398.83 42.9538 400.059C47.5949 401.289 49.594 408.078 47.4189 415.222C45.2438 422.367 39.7181 427.162 35.077 425.933Z" fill="#545ED7"/>
<path d="M222.424 277.882C181.613 266.129 141.233 259.668 100.427 247.918C141.292 190.909 167.674 112.158 209.573 40.1804C209.573 40.1804 280.612 41.519 289.348 145.792C298.085 250.066 291.532 157.364 291.532 157.364L222.424 277.882Z" fill="#B6292F"/>
<path d="M286.35 150.424C272.494 196.436 245.019 236.247 222.204 276.477C228.182 278.174 241.367 281.012 247.349 282.708C247.349 282.708 310.41 169.095 308.416 168.158C306.423 167.22 287.343 154.355 286.35 150.424Z" fill="#E32E36"/>
<path d="M309.956 173.43L354.759 82.3799C354.759 82.3799 362.898 63.7471 348.156 54.287L318.743 40.1804" stroke="white" stroke-width="9" stroke-miterlimit="10"/>
<path d="M296.995 381.272L282.511 225.703" stroke="white" stroke-width="9" stroke-miterlimit="10"/>
<path d="M281.548 428.189C266.628 424.236 260.204 402.406 267.199 379.43C274.194 356.453 291.959 341.031 306.879 344.984C321.799 348.936 328.223 370.766 321.228 393.743C314.233 416.719 296.468 432.141 281.548 428.189Z" fill="#545ED7"/>
<path d="M290.132 422.42C278.48 419.334 273.463 402.284 278.926 384.34C284.389 366.395 298.264 354.351 309.916 357.437C321.567 360.524 326.585 377.574 321.121 395.518C315.658 413.463 301.784 425.507 290.132 422.42Z" fill="white"/>
<path d="M265.441 257.098C265.441 257.098 271.168 227.232 257.03 220.893C247.976 216.832 134.977 192.052 116.848 188.226C114.492 187.728 112 188.083 109.975 189.35C106.415 191.573 103.148 199.791 124.701 209.377" stroke="white" stroke-width="9" stroke-miterlimit="10"/>
<path d="M298.194 401.985C293.43 400.723 291.378 393.757 293.61 386.426C295.842 379.095 301.513 374.175 306.276 375.437C311.04 376.699 313.092 383.665 310.86 390.996C308.628 398.327 302.957 403.247 298.194 401.985Z" fill="#545ED7"/>
<path d="M145.532 476.96C132.536 473.517 126.94 454.501 133.033 434.486C139.126 414.472 154.601 401.038 167.598 404.481C180.595 407.924 186.191 426.94 180.098 446.955C174.004 466.969 158.529 480.403 145.532 476.96Z" fill="#545ED7"/>
<path d="M153.011 471.936C142.86 469.247 138.49 454.395 143.248 438.764C148.007 423.132 160.094 412.64 170.244 415.329C180.394 418.018 184.765 432.87 180.006 448.501C175.248 464.133 163.161 474.625 153.011 471.936Z" fill="white"/>
<path d="M159.613 455.522C154.969 454.292 152.969 447.496 155.147 440.343C157.324 433.19 162.855 428.389 167.499 429.619C172.144 430.85 174.143 437.646 171.966 444.799C169.788 451.951 164.258 456.752 159.613 455.522Z" fill="#545ED7"/>
<path d="M260.268 67.7101C260.268 67.7101 219.12 56.9005 193.979 89.5544C172.755 115.702 151.386 156.655 151.386 156.655C151.386 156.655 100.678 71.7655 118.03 46.8972C135.385 22.0327 236.99 17.9476 260.268 67.7101Z" fill="#A21C21"/>
<path d="M310.444 172.559L212.995 354.763C212.995 354.763 179.007 418.042 153.263 428.516C127.523 438.99 47.2146 420.222 35.0043 400.585C22.7939 380.948 75.8598 281.554 75.8598 281.554" stroke="white" stroke-width="9" stroke-miterlimit="10"/>
<path d="M267.847 257.133C275.38 260.207 284.721 255.788 288.704 247.271C292.691 238.747 289.817 229.343 282.283 226.27C274.75 223.196 265.417 227.618 261.429 236.142C257.446 244.659 260.321 254.062 267.847 257.133Z" fill="#FFF7CF"/>
<path d="M270.474 251.514C275.267 253.47 281.206 250.66 283.739 245.245C286.276 239.822 284.448 233.842 279.655 231.887C274.87 229.934 268.93 232.744 266.394 238.167C263.861 243.582 265.689 249.562 270.474 251.514Z" fill="#FF7915"/>
<path d="M103.013 244.537C103.013 244.537 39.9042 250.334 63.182 304.928C73.5277 329.192 205.487 358.436 207.322 330.158C209.157 301.88 247.349 282.708 247.349 282.708L103.013 244.537Z" fill="#E32E36"/>
<path d="M301.65 177.391C301.65 177.391 283.44 175.741 285.014 165.071C291.941 118.166 276.178 48.0695 206.295 40.6661C136.413 33.2628 115.464 52.1691 115.464 52.1691C115.464 52.1691 118.03 30.7313 130.346 19.5771C147.416 4.11719 158.135 -0.689578 199.012 0.614619C239.889 1.91882 257.006 6.81826 269.234 14.0049L269.855 14.3687C269.855 14.3687 297.142 7.59226 320.591 36.211C340.387 60.3754 332.818 95.6391 332.818 95.6391L301.65 177.391Z" fill="#EE4A51"/>
<path d="M303.913 156.683C303.913 156.683 313.803 104.157 301.778 65.888C289.753 27.6192 249.922 6.3519 249.922 6.3519C249.922 6.3519 295.679 6.67741 320.905 35.8876C352.392 72.3459 328.549 124.729 328.549 124.729C328.549 124.729 302.685 182.212 301.778 176.424C300.871 170.636 303.913 156.683 303.913 156.683Z" fill="#E32E36"/>
</svg>

<svg width="362" height="484" fill="none" xmlns="http://www.w3.org/2000/svg"><path d="M217.833 409.012a9.998 9.998 0 01-8.322 1.38L67.876 371.016a10 10 0 01-7.322-9.634v-26.091c0-1.44.306-2.852.92-4.154 2.723-5.767 10.947-22.751 17.254-31.219 1.147-1.539 1.952-3.307 2.599-5.115 2.359-6.592 8.965-15.391 13.182-20.611 2.247-2.78 5.868-3.984 9.371-3.268l179.003 36.566a10 10 0 017.89 8.329l4.921 33.143a9.999 9.999 0 01-4.248 9.724l-73.613 50.326z" fill="#BF252B"/><path d="M22.097 445.287c-12.204-3.233-17.459-21.089-11.738-39.882 5.722-18.793 20.253-31.407 32.457-28.174 12.204 3.233 17.46 21.089 11.738 39.882-5.722 18.793-20.253 31.407-32.457 28.174z" fill="#545ED7"/><path d="M29.116 440.569c-9.53-2.525-13.633-16.47-9.164-31.148 4.468-14.678 15.816-24.53 25.346-22.005 9.53 2.524 13.633 16.47 9.165 31.147-4.469 14.678-15.817 24.53-25.347 22.006z" fill="#fff"/><path d="M35.077 425.933c-4.641-1.23-6.64-8.019-4.465-15.163 2.175-7.145 7.7-11.94 12.342-10.711 4.64 1.23 6.64 8.019 4.465 15.163-2.175 7.145-7.7 11.94-12.342 10.711z" fill="#545ED7"/><path d="M222.424 277.882c-40.811-11.753-81.191-18.214-121.997-29.964 40.865-57.009 67.247-135.76 109.146-207.738 0 0 71.039 1.339 79.775 105.612 8.737 104.274 2.184 11.572 2.184 11.572l-69.108 120.518z" fill="#B6292F"/><path d="M286.35 150.424c-13.856 46.012-41.331 85.823-64.146 126.053 5.978 1.697 19.163 4.535 25.145 6.231 0 0 63.061-113.613 61.067-114.55-1.993-.938-21.073-13.803-22.066-17.734z" fill="#E32E36"/><path d="M309.956 173.43l44.803-91.05s8.139-18.633-6.603-28.093L318.743 40.18M296.995 381.272l-14.484-155.569" stroke="#fff" stroke-width="9" stroke-miterlimit="10"/><path d="M281.548 428.189c-14.92-3.953-21.344-25.783-14.349-48.759 6.995-22.977 24.76-38.399 39.68-34.446 14.92 3.952 21.344 25.782 14.349 48.759-6.995 22.976-24.76 38.398-39.68 34.446z" fill="#545ED7"/><path d="M290.132 422.42c-11.652-3.086-16.669-20.136-11.206-38.08 5.463-17.945 19.338-29.989 30.99-26.903 11.651 3.087 16.669 20.137 11.205 38.081-5.463 17.945-19.337 29.989-30.989 26.902z" fill="#fff"/><path d="M265.441 257.098s5.727-29.866-8.411-36.205c-9.054-4.061-122.053-28.841-140.182-32.667-2.356-.498-4.848-.143-6.873 1.124-3.56 2.223-6.827 10.441 14.726 20.027" stroke="#fff" stroke-width="9" stroke-miterlimit="10"/><path d="M298.194 401.985c-4.764-1.262-6.816-8.228-4.584-15.559 2.232-7.331 7.903-12.251 12.666-10.989 4.764 1.262 6.816 8.228 4.584 15.559-2.232 7.331-7.903 12.251-12.666 10.989zM145.532 476.96c-12.996-3.443-18.592-22.459-12.499-42.474 6.093-20.014 21.568-33.448 34.565-30.005 12.997 3.443 18.593 22.459 12.5 42.474-6.094 20.014-21.569 33.448-34.566 30.005z" fill="#545ED7"/><path d="M153.011 471.936c-10.151-2.689-14.521-17.541-9.763-33.172 4.759-15.632 16.846-26.124 26.996-23.435 10.15 2.689 14.521 17.541 9.762 33.172-4.758 15.632-16.845 26.124-26.995 23.435z" fill="#fff"/><path d="M159.613 455.522c-4.644-1.23-6.644-8.026-4.466-15.179 2.177-7.153 7.708-11.954 12.352-10.724 4.645 1.231 6.644 8.027 4.467 15.18-2.178 7.152-7.708 11.953-12.353 10.723z" fill="#545ED7"/><path d="M260.268 67.71S219.12 56.9 193.979 89.554c-21.224 26.148-42.593 67.101-42.593 67.101s-50.708-84.89-33.356-109.758c17.355-24.864 118.96-28.95 142.238 20.813z" fill="#A21C21"/><path d="M310.444 172.559l-97.449 182.204s-33.988 63.279-59.732 73.753c-25.74 10.474-106.048-8.294-118.259-27.931-12.21-19.637 40.856-119.031 40.856-119.031" stroke="#fff" stroke-width="9" stroke-miterlimit="10"/><path d="M267.847 257.133c7.533 3.074 16.874-1.345 20.857-9.862 3.987-8.524 1.113-17.928-6.421-21.001-7.533-3.074-16.866 1.348-20.854 9.872-3.983 8.517-1.108 17.92 6.418 20.991z" fill="#FFF7CF"/><path d="M270.474 251.514c4.793 1.956 10.732-.854 13.265-6.269 2.537-5.423.709-11.403-4.084-13.358-4.785-1.953-10.725.857-13.261 6.28-2.533 5.415-.705 11.395 4.08 13.347z" fill="#FF7915"/><path d="M103.013 244.537s-63.109 5.797-39.831 60.391c10.346 24.264 142.305 53.508 144.14 25.23 1.835-28.278 40.027-47.45 40.027-47.45l-144.336-38.171z" fill="#E32E36"/><path d="M301.65 177.391s-18.21-1.65-16.636-12.32c6.927-46.905-8.836-117.001-78.719-124.405-69.882-7.403-90.831 11.503-90.831 11.503s2.566-21.438 14.882-32.592C147.416 4.117 158.135-.69 199.012.615c40.877 1.304 57.994 6.203 70.222 13.39l.621.364s27.287-6.777 50.736 21.842c19.796 24.164 12.227 59.428 12.227 59.428l-31.168 81.752z" fill="#EE4A51"/><path d="M303.913 156.683s9.89-52.526-2.135-90.795-51.856-59.536-51.856-59.536 45.757.325 70.983 29.536c31.487 36.458 7.644 88.841 7.644 88.841s-25.864 57.483-26.771 51.695c-.907-5.788 2.135-19.741 2.135-19.741z" fill="#E32E36"/></svg>
